static/img/menus/ico-infinity.svg

<svg width="22" height="11" viewBox="0 0 22 11" fill="none" xmlns="http://www.w3.org/2000/svg">
<g clip-path="url(#clip0_32_77)">
<path d="M16.5 0C13.7757 0 11.9689 2.04142 11 3.5585C10.0311 2.04142 8.22433 0 5.5 0C4.04131 0 2.64236 0.579463 1.61091 1.61091C0.579463 2.64236 0 4.04131 0 5.5C0 6.95869 0.579463 8.35764 1.61091 9.38909C2.64236 10.4205 4.04131 11 5.5 11C8.22433 11 10.0311 8.95858 11 7.4415C11.9689 8.95858 13.7757 11 16.5 11C17.9587 11 19.3576 10.4205 20.3891 9.38909C21.4205 8.35764 22 6.95869 22 5.5C22 4.04131 21.4205 2.64236 20.3891 1.61091C19.3576 0.579463 17.9587 0 16.5 0ZM5.5 9.16667C4.52754 9.16667 3.59491 8.78036 2.90728 8.09272C2.21964 7.40509 1.83333 6.47246 1.83333 5.5C1.83333 4.52754 2.21964 3.59491 2.90728 2.90727C3.59491 2.21964 4.52754 1.83333 5.5 1.83333C7.96858 1.83333 9.51683 4.53292 9.99167 5.5C9.5205 6.47167 7.98233 9.16667 5.5 9.16667ZM16.5 9.16667C14.0314 9.16667 12.4832 6.46708 12.0083 5.5C12.4804 4.53017 14.0186 1.83333 16.5 1.83333C17.4725 1.83333 18.4051 2.21964 19.0927 2.90727C19.7804 3.59491 20.1667 4.52754 20.1667 5.5C20.1667 6.47246 19.7804 7.40509 19.0927 8.09272C18.4051 8.78036 17.4725 9.16667 16.5 9.16667Z" fill="currentColor"/>
</g>
<defs>
<clipPath id="clip0_32_77">
<rect width="22" height="11" />
</clipPath>
</defs>
</svg>

<svg xmlns="http://www.w3.org/2000/svg" width="22" height="11" fill="none" viewBox="0 0 22 11"><g clip-path="url(#a)"><path fill="currentColor" d="M16.5 0c-2.724 0-4.531 2.041-5.5 3.559C10.031 2.04 8.224 0 5.5 0a5.5 5.5 0 0 0 0 11c2.724 0 4.531-2.041 5.5-3.559C11.969 8.96 13.776 11 16.5 11a5.5 5.5 0 0 0 0-11m-11 9.167a3.667 3.667 0 1 1 0-7.334c2.469 0 4.017 2.7 4.492 3.667-.472.972-2.01 3.667-4.492 3.667m11 0c-2.469 0-4.017-2.7-4.492-3.667.472-.97 2.01-3.667 4.492-3.667a3.666 3.666 0 1 1 0 7.334"/></g><defs><clipPath id="a"><path d="M0 0h22v11H0z"/></clipPath></defs></svg>
